frontend/public/svg/arrows/arrow-single-up.svg

<svg width="93" height="59" viewBox="0 0 93 59" fill="none" xmlns="http://www.w3.org/2000/svg">
<path d="M44.7951 9.92891C39.2733 16.3715 33.5843 22.4217 28.5797 28.9929C21.8398 37.8423 15.6031 47.077 9.20251 56.183C7.44024 58.6896 4.95612 59.6124 2.8053 58.3161C0.594754 56.9851 0.0663444 54.1037 1.84371 51.7291C10.5402 40.1119 19.19 28.4508 28.0926 16.9898C31.9709 11.9977 36.4281 7.45853 40.5978 2.68892C43.7482 -0.920935 46.8127 -0.899944 49.8522 2.77489C60.2223 15.3123 70.6022 27.8415 80.9915 40.3627C84.4183 44.4713 88.0938 48.37 91.5264 52.4761C92.3605 53.4363 92.846 54.65 92.9046 55.9205C92.839 57.7905 90.6383 58.5144 88.8708 57.2273C87.1053 55.9398 85.4715 54.4809 83.993 52.8718C71.7326 39.5167 59.5027 26.1337 47.3036 12.723C46.5751 11.9255 45.8596 11.1182 44.7951 9.92891Z" fill="black"/>
</svg>

<svg xmlns="http://www.w3.org/2000/svg" width="93" height="59" fill="none" viewBox="0 0 93 59"><path fill="#000" d="M44.795 9.929c-5.522 6.443-11.21 12.493-16.215 19.064-6.74 8.85-12.977 18.084-19.377 27.19-1.763 2.507-4.247 3.43-6.398 2.133-2.21-1.33-2.739-4.212-.961-6.587C10.54 40.112 19.19 28.451 28.093 16.99c3.878-4.991 8.335-9.53 12.505-14.3 3.15-3.61 6.215-3.589 9.254.086q15.555 18.806 31.14 37.588c3.426 4.108 7.102 8.007 10.534 12.113a5.65 5.65 0 0 1 1.379 3.444c-.066 1.87-2.267 2.594-4.034 1.307a33 33 0 0 1-4.878-4.355 11914 11914 0 0 1-36.69-40.149c-.728-.798-1.443-1.605-2.508-2.794"/></svg>
